src/assets/images/core3.svg

<svg width="57" height="57" viewBox="0 0 57 57" fill="none" xmlns="http://www.w3.org/2000/svg">
<circle cx="28.5" cy="28.5" r="28.5" fill="#FF759A"/>
<path d="M33.414 26.414C34 25.828 34 24.886 34 23C34 21.114 34 20.172 33.414 19.586M33.414 26.414C32.828 27 31.886 27 30 27H26C24.114 27 23.172 27 22.586 26.414M33.414 19.586C32.828 19 31.886 19 30 19H26C24.114 19 23.172 19 22.586 19.586M22.586 19.586C22 20.172 22 21.114 22 23C22 24.886 22 25.828 22.586 26.414M29 23C29 23.2652 28.8946 23.5196 28.7071 23.7071C28.5196 23.8946 28.2652 24 28 24C27.7348 24 27.4804 23.8946 27.2929 23.7071C27.1054 23.5196 27 23.2652 27 23C27 22.7348 27.1054 22.4804 27.2929 22.2929C27.4804 22.1054 27.7348 22 28 22C28.2652 22 28.5196 22.1054 28.7071 22.2929C28.8946 22.4804 29 22.7348 29 23Z" stroke="#FEFEFE" stroke-width="1.58182"/>
<path d="M34 22C33.2044 22 32.4413 21.6839 31.8787 21.1213C31.3161 20.5587 31 19.7956 31 19M34 24C33.2044 24 32.4413 24.3161 31.8787 24.8787C31.3161 25.4413 31 26.2044 31 27M22 22C22.7956 22 23.5587 21.6839 24.1213 21.1213C24.6839 20.5587 25 19.7956 25 19M22 24C22.7956 24 23.5587 24.3161 24.1213 24.8787C24.6839 25.4413 25 26.2044 25 27M21 36.388H23.26C24.27 36.388 25.293 36.494 26.276 36.696C28.031 37.0565 29.8368 37.0965 31.606 36.814C32.474 36.674 33.326 36.459 34.098 36.087C34.794 35.75 35.647 35.277 36.22 34.746C36.792 34.216 37.388 33.349 37.81 32.671C38.174 32.089 37.998 31.376 37.424 30.943C37.1015 30.7084 36.7129 30.582 36.314 30.582C35.9151 30.582 35.5265 30.7084 35.204 30.943L33.397 32.308C32.697 32.838 31.932 33.325 31.021 33.47C30.911 33.487 30.796 33.503 30.676 33.517M30.676 33.517C30.6394 33.5212 30.6027 33.5252 30.566 33.529M30.676 33.517C30.8361 33.4737 30.9828 33.3912 31.103 33.277C31.2537 33.1466 31.3767 32.9874 31.4649 32.8087C31.553 32.63 31.6045 32.4355 31.6163 32.2366C31.628 32.0377 31.5998 31.8384 31.5333 31.6506C31.4668 31.4628 31.3633 31.2902 31.229 31.143C31.0987 30.9983 30.9469 30.8746 30.779 30.776C27.982 29.107 23.629 30.378 21 32.243M30.676 33.517C30.6399 33.5249 30.603 33.5289 30.566 33.529M30.566 33.529C29.9629 33.5896 29.3553 33.5909 28.752 33.533" stroke="#FEFEFE" stroke-width="1.58182" stroke-linecap="round"/>
<path d="M21 31.501C21 30.6725 20.3284 30.001 19.5 30.001C18.6716 30.001 18 30.6725 18 31.501V36.501C18 37.3294 18.6716 38.001 19.5 38.001C20.3284 38.001 21 37.3294 21 36.501V31.501Z" stroke="#FEFEFE" stroke-width="1.58182"/>
</svg>

<svg xmlns="http://www.w3.org/2000/svg" width="57" height="57" fill="none"><circle cx="28.5" cy="28.5" r="28.5" fill="#FF759A"/><path stroke="#FEFEFE" stroke-width="1.582" d="M33.414 26.414C34 25.828 34 24.886 34 23s0-2.828-.586-3.414m0 6.828C32.828 27 31.886 27 30 27h-4c-1.886 0-2.828 0-3.414-.586m10.828-6.828C32.828 19 31.886 19 30 19h-4c-1.886 0-2.828 0-3.414.586m0 0C22 20.172 22 21.114 22 23s0 2.828.586 3.414M29 23a1 1 0 1 1-2 0 1 1 0 0 1 2 0Z"/><path stroke="#FEFEFE" stroke-linecap="round" stroke-width="1.582" d="M34 22a3 3 0 0 1-3-3m3 5a3 3 0 0 0-3 3m-9-5a3 3 0 0 0 3-3m-3 5a3 3 0 0 1 3 3m-4 9.388h2.26c1.01 0 2.033.106 3.016.308 1.755.36 3.56.4 5.33.118.868-.14 1.72-.355 2.492-.727.696-.337 1.549-.81 2.122-1.341.572-.53 1.168-1.397 1.59-2.075.364-.582.188-1.295-.386-1.728a1.89 1.89 0 0 0-2.22 0l-1.807 1.365c-.7.53-1.465 1.017-2.376 1.162q-.165.026-.345.047m0 0-.11.012m.11-.012a1 1 0 0 0 .427-.24 1.493 1.493 0 0 0 .126-2.134 1.9 1.9 0 0 0-.45-.367c-2.797-1.669-7.15-.398-9.779 1.467m9.676 1.274a.5.5 0 0 1-.11.012m0 0q-.906.09-1.814.004"/><path stroke="#FEFEFE" stroke-width="1.582" d="M21 31.501a1.5 1.5 0 1 0-3 0v5a1.5 1.5 0 0 0 3 0z"/></svg>
